!!!OTL: 83. Das Baeuerlein am Rhein.
!!!ARE: Europa, Mitteleuropa, Deutschland; France, Elsass
!!!SCT: K0083
!!!TXL: @@NDS
!!!YEM: Copyright 1995, estate of Helmut Schaffrath.
**kern	**text
*clefG2	*
*M6/8	*
*k[b-]	*
*F:	*
=1	=1
{4.cc	Ni-
4.g	-na,
=2	=2
8.f	's_fah-
16f	-ret
8f	ä
8.g	Bie-
16g	-re-
8g	-le
=3	=3
4.a	d'Rhin
4.g}	na,
=4	=4
{8cc	hat
8cc	ä
8cc	ſo
4g	ſche-
8g	-ni
=5	=5
8.a	He-
16g	-ſe-
8a	-le
4.f}	o,
=6	=6
{8cc	un
8cc	ä
8cc	ſo
4g	ſche-
8g	-ni
=7	=7
8.a	Knep-
16g	-fe-
8a	-le
4.f}	dra.
=8	=8
{4f	Un-
8g	-ſer
8.a	Biäw-
16a	-le
8a	muß
=9	=9
8g	oi
8g	äis
8cc	ſo
4f	ha.
8r}	.
==	==
!!!AGN: Kinder -, Wiegen - Lied
!!!ONB: ESAC (Essen Associative Code) Database: KINDER
!!!AMT: compound duple
!!!AIN: vox
!!!EED: Helmut Schaffrath
!!!EEV: 1.0
!!@@COMMENT:"Elsass: Weckerlin II. 5."
!!@@END:
!!!GTL: I. Wiegenlieder.
!!!URL-scan: https://archive.org/details/DeutschesKinderliedUndKinderspiel/page/19/mode/1up
!!!ENC: Anna Maria Matuszewska
!!!EEV: 2024/29/08
*-	*-
